!!!!SEGMENT: pl-kk--kk-i-8--007_anonim--salve-mundi-domina.krn
!!!cenid: 16xx:1148
!!!COM: Anonim
!!!COM-rismid: pe30004985
!!!CDT:
!!!CNT:
!!!OTL: Salve mundi Domina
!!!PDT:
!!!AGN: Sacred
!!!SMS-siglum: PL-Kk
!!!SMS-shelfmark: Kk.I.8
!!!SMS-shelfwork: 007 W
!!!SMS-variant:
!!!SMS-altvar:
!!!NIFC-rismid: 1001148324
!!!URL-scan: http://repozytorium.nifc.pl/skany/pl-kk-nut--i-8
!!!ONB-nifc: UWAGA: A (skan 0005, s.3r-4v), T1 (0028, s.3r-4v), T2 (0052, s.3r-4v), B (0075, s.3r-4v). Następny utwór: Veni sponsa Christi
!!!AIN: 1 alto 1 bass 2 tenor
!!!key:
**kern	**text	**kern	**text	**kern	**text	**kern	**text
*part4	*part4	*part3	*part3	*part2	*part2	*part1	*part1
*staff4	*staff4	*staff3	*staff3	*staff2	*staff2	*staff1	*staff1
*Ibass	*	*Itenor	*	*Itenor	*	*Ialto	*
*I"BASSVS.	*	*I"TENOR 2dus.	*	*I"Tenore 1mo	*	*I"alto.	*
*I'B	*	*I'T II	*	*I'T I	*	*I'A	*
*clefF4	*	*clefC4	*	*clefC4	*	*clefC3	*
*k[b-]	*	*k[b-]	*	*k[b-]	*	*k[b-]	*
*g:	*	*g:	*	*g:	*	*g:	*
*M2/1	*	*M2/1	*	*M2/1	*	*M2/1	*
*met(c)	*	*met(c)	*	*met(c)	*	*met(C|)	*
=1-	=1-	=1-	=1-	=1-	=1-	=1-	=1-
!	!	!	!	!	!	!LO:TX:t=P:global:problem=oddech/cezura na różnej wysokości	!
!	!	!	!	!	!	!LO:TX:t=P:problem=kreska pseudotaktowa	!
!LO:TX:t=P:problem=kreska pseudotaktowa	!	!	!	!	!	!LO:TX:t=P:problem=all\right&colon; global (T I, II, B)	!
1r	.	2.G/	Sal-	2r	.	1r	.
!	!	!	!	!LO:TX:t=P::problem=kreska pseudotaktowa&colon;między nutą a kropką	!	!	!
.	.	.	.	2.G/	Sal-	.	.
!	!	!LO:TX:t=P:problem=kreska pseudotaktowa	!	!	!	!	!
.	.	4A/	.	.	.	.	.
2.GG/	Sal-	4B-\	.	.	.	1.g\	Sal-
.	.	4c\	.	4A/	.	.	.
.	.	4d\	.	4B-/	.	.	.
!LO:TX:t=P:problem=kreska pseudotaktowa	!	!LO:TX:t=P:problem=kreska pseudotaktowa	!	!LO:TX:t=P:problem=kreska pseudotaktowa	!	!	!
4AA/	.	4c\	.	4c/	.	.	.
=2-	=2-	=2-	=2-	=2-	=2-	=2-	=2-
*	*	*2\right	*	*2\right	*	*	*
!	!	!LO:TX:t=P:problem=2\right&colon; global	!	!LO:TX:t=P:problem=2\right&colon; global	!	!	!
4BB-/	.	2B-\	.	2.d\	.	.	.
4C/	.	.	.	.	.	.	.
!	!	!	!	!	!	!LO:TX:t=P:problem=kreska pseudotaktowa	!
!LO:TX:t=P:problem=kreska pseudotaktowa	!	!LO:TX:t=P:problem=kreska pseudotaktowa	!	!	!	!LO:TX:t=P:problem=# above	!
2D/	.	2A\	.	.	.	2f#X\	.
!	!	!	!	!LO:TX:t=P:problem=kreska pseudotaktowa	!	!	!
.	.	.	.	4c\	.	.	.
!	!	!LO:TX:t=P:problem=kreska pseudotaktowa	!	!	!	!	!
2GG/	-ue	1G/	-ue	2B-\	.	2g\	-ve
1C/	ſal-	.	.	2.e-X\	.	4c\	Sal-
!	!	!	!	!	!	!LO:TX:t=P:problem=kreska pseudotaktowa	!
.	.	.	.	.	.	4d\	.
=3-	=3-	=3-	=3-	=3-	=3-	=3-	=3-
!	!	!	!	!	!	!LO:SIC:v:s=4e-	!
.	.	2r	.	.	.	4e\	.
.	.	.	.	8d\L	.	4f\	.
.	.	.	.	8c\J	.	.	.
!LO:TX:t=P:problem=kreska pseudotaktowa	!	!	!	!	!	!	!
!LO:N:acc=#	!	!LO:TX:t=P:problem=kreska pseudotaktowa	!	!LO:TX:t=P:problem=kreska pseudotaktowa	!	!	!
2BBn/	.	2d\	ſal-	2d\	.	2.g\	.
2.C/	.	2G/	-ue	4c\	.	.	.
.	.	.	.	4d\	.	4f\	.
.	.	1c\	ſal-	4e-X\	.	4e-X\	.
!	!	!	!	!LO:TX:t=P:problem=kreska pseudotaktowa	!	!LO:TX:t=P:problem=kreska pseudotaktowa	!
4D/	.	.	.	4f\	.	4d\	.
=4-	=4-	=4-	=4-	=4-	=4-	=4-	=4-
4E-X\	.	.	.	2g\	.	2c/	.
4F\	.	.	.	.	.	.	.
*2\right	*	*	*	*	*	*	*
!	!	!LO:TX:t=P:problem=kreska pseudotaktowa	!	!	!	!	!
!LO:TX:t=P:problem=kreska pseudotaktowa	!	!LO:TX:t=P:problem=# above	!	!	!	!	!
!LO:TX:t=P:problem=2\right&colon; global	!	!LO:N:acc=#	!	!LO:TX:t=P:problem=kreska pseudotaktowa	!	!LO:TX:t=P:problem=kreska pseudotaktowa	!
2G\	.	2Bn\	.	2d\	.	2g\	.
!	!	!	!	!LO:TX:t=P:problem=♭ above	!	!	!
2C/	-ue	4c\	.	2e-X\	.	2e-X\	.
.	.	4B-X\	.	.	.	.	.
!	!	!	!	!LO:TX:t=P:problem=kreska pseudotaktowa	!	!LO:TX:t=P:problem=kreska pseudotaktowa	!
*	*ij	*	*	*	*	*	*
1F\	ſal-	4A/	.	2c\	.	2f\	.
!	!	!LO:TX:t=P:problem=kreska pseudotaktowa	!	!	!	!	!
.	.	4G/	.	.	.	.	.
=5-	=5-	=5-	=5-	=5-	=5-	=5-	=5-
.	.	2F/	.	2d\	.	2B-/	-ve
!LO:TX:t=P:problem=kreska pseudotaktowa	!	!	!	!LO:TX:t=P:problem=kreska pseudotaktowa	!	!LO:TX:t=P:problem=kreska pseudotaktowa	!
2E-X\	.	1G/	.	2G/	.	2r	.
!	!	!	!	!LO:TX:t=P:problem=kreska pseudotaktowa	!	!	!
2.D/	.	.	.	1A\	.	2r	.
!	!	!LO:TX:t=P:problem=kreska pseudotaktowa	!	!	!	!	!
*	*	*	*	*	*	*	*ij
.	.	2F/	.	.	.	1f\	Sal-
!LO:TX:t=P:problem=kreska pseudotaktowa	!	!	!	!	!	!	!
4C/	.	.	.	.	.	.	.
=6-	=6-	=6-	=6-	=6-	=6-	=6-	=6-
!LO:N:acc=#	!	!	!	!	!	!	!
2BBn/	.	2G/	.	2G/	-ue	.	.
*	*	*	*	*custos:d	*	*	*
!	!	!	!	!LO:TX:t=P:problem=kreska pseudotaktowa	!	!	!
!LO:TX:t=P:problem=kreska pseudotaktowa	!	!LO:TX:t=P:problem=kreska pseudotaktowa	!	!	!	!LO:TX:t=P:problem=kreska pseudotaktowa	!
2C/	.	2A/	.	2r	.	2e-X\	.
!	!	!	!	!LO:LB:g=original	!	!	!
!	!	!LO:TX:t=P:problem=kreska pseudotaktowa	!	!	!	!	!
2GG/	-ue	1B-\	.	2r	.	2d\	.
*	*Xij	*	*	*	*	*	*
!	!	!	!	!LO:TX:t=P:problem=kreska pseudotaktowa	!	!LO:TX:t=P:problem=kreska pseudotaktowa	!
1G\	ſal-	.	.	2d\	ſal-	2g\	.
=7-	=7-	=7-	=7-	=7-	=7-	=7-	=7-
!	!	!LO:TX:t=P:problem=kreska pseudotaktowa	!	!	!	!	!
.	.	1A\	.	2A/	.	2c\	.
!LO:TX:t=P:problem=kreska pseudotaktowa	!	!	!	!	!	!LO:TX:t=P:problem=kreska pseudotaktowa	!
2F\	.	.	.	1d\	.	2f\	.
!LO:LB:g=original	!	!LO:LB:g=original	!	!	!	!	!
!	!	!	!	!	!	!LO:TX:t=P:problem=kreska pseudotaktowa	!
!	!	!	!	!	!	!LO:TX:t=P:problem=♭ above	!
2G\	.	2G/	-ue	.	.	1e-X\	.
!LO:TX:t=P:problem=kreska pseudotaktowa	!	!LO:TX:t=P:problem=kreska pseudotaktowa	!	!LO:TX:t=P:problem=kreska pseudotaktowa	!	!	!
2A\	.	2r	.	2c\	.	.	.
!	!	!	!	!	!	!LO:LB:g=original	!
=8-	=8-	=8-	=8-	=8-	=8-	=8-	=8-
1B-\	.	2r	.	2d\	.	2d\	-ve
*	*	*	*	*	*	*	*Xij
!	!	!	!	!LO:TX:t=P:problem=kreska pseudotaktowa	!	!LO:TX:t=P:problem=kreska pseudotaktowa	!
.	.	1d\	ſal-	2e\	.	2r	.
2.A\	.	.	.	2f\	.	1r	.
!	!	!LO:TX:t=P:problem=kreska pseudotaktowa	!	!LO:TX:t=P:problem=kreska pseudotaktowa	!	!	!
.	.	2c\	.	2e\	.	.	.
!LO:TX:t=P:problem=kreska pseudotaktowa	!	!	!	!	!	!	!
4G\	.	.	.	.	.	.	.
=9-	=9-	=9-	=9-	=9-	=9-	=9-	=9-
2F#X\	.	2d\	.	2d\	-ue	2r	.
!LO:TX:t=P:problem=kreska pseudotaktowa	!	!LO:TX:t=P:problem=kreska pseudotaktowa	!	!	!	!LO:TX:t=P:problem=kreska pseudotaktowa	!
2G\	.	2B-\	.	1d\	ſal-	2g\	Sal-
2D\	-ue	2A\	-ue	.	.	2f\	-ve
!	!	!	!	!LO:TX:t=P:problem=kreska pseudotaktowa	!	!	!
1G\	mun-	1B-\	mun-	2d\	-ue	4g\	.
!	!	!	!	!	!	!LO:TX:t=P:problem=kreska pseudotaktowa	!
.	.	.	.	.	.	4a\	.
=10-	=10-	=10-	=10-	=10-	=10-	=10-	=10-
.	.	.	.	2d\	mun-	2b-\	Mun-
!LO:TX:t=P:problem=kreska pseudotaktowa	!	!LO:TX:t=P:problem=kreska pseudotaktowa	!	!LO:TX:t=P:problem=kreska pseudotaktowa	!	!LO:TX:t=P:problem=kreska pseudotaktowa	!
2F\	-di	2d\	-di	2d\	-di	2a\	-di
2.E-X\	Do-	2.G/	Do-	2.d\	Do-	2.g\	D(o-
!LO:TX:t=P:problem=kreska pseudotaktowa	!	!LO:TX:t=P:problem=kreska pseudotaktowa	!	!LO:TX:t=P:problem=kreska pseudotaktowa	!	!LO:TX:t=P:problem=kreska pseudotaktowa	!
4E-\	-mi-	4G/	-mi-	4c\	-mi-	4g\	-mi)-
=11-	=11-	=11-	=11-	=11-	=11-	=11-	=11-
2D;,\	-na	2A/	-na	4d\	-na	4f\	-na
.	.	.	.	4d\	cae-	4d\	cae-
!LO:TX:t=P:problem=kreska pseudotaktowa	!	!LO:TX:t=P:problem=kreska pseudotaktowa	!	!	!	!	!
2D\	cae-	2A/	cae-	4d\	-lo-	4f\	-lo-
.	.	.	.	8c\L	.	8e\L	.
!	!	!	!	!LO:TX:t=P:problem=kreska pseudotaktowa	!	!LO:TX:t=P:problem=kreska pseudotaktowa	!
.	.	.	.	8B-\J	.	8d\J	.
4F\	-lo-	4A/	-lo-	4A\	.	4c/	.
!LO:TX:t=P:problem=♭ above	!	!	!	!	!	!	!
8E-X\L	.	8G/L	.	8A\	-rum	4d\	.
*	*	*	*	*custos:c	*	*	*
8D\J	.	8F/J	.	8A\	cae-	.	.
!	!	!	!	!LO:LB:g=original	!	!	!
!	!	!LO:SIC:v:s=4E-	!	!	!	!LO:SIC:v:s=4e-	!
4C/	.	4E/	.	4c\	-lo-	4e\	.
!LO:TX:t=P:problem=kreska pseudotaktowa	!	!LO:TX:t=P:problem=kreska pseudotaktowa	!	!	!	!	!
4D/	.	4F/	.	8B-\L	.	8d\L	.
!	!	!	!	!LO:TX:t=P:problem=kreska pseudotaktowa	!	!LO:TX:t=P:problem=kreska pseudotaktowa	!
.	.	.	.	8A\J	.	8c\J	.
=12-	=12-	=12-	=12-	=12-	=12-	=12-	=12-
2E-X\	.	2G/	.	2G/	.	4B-/	-ru(m)
.	.	.	.	.	.	8r	.
.	.	.	.	.	.	8g\	Cae-
!	!	!	!	!LO:TX:t=P:problem=kreska pseudotaktowa	!	!	!
4BB-/	-rum	4D/	-rum	2F/	-rum	4b-\	-lo-
!LO:TX:t=P:problem=kreska pseudotaktowa	!	!	!	!	!	!	!
4G\	cae-	8r	.	.	.	8a\L	.
!	!	!LO:TX:t=P:problem=kreska pseudotaktowa	!	!	!	!LO:TX:t=P:problem=kreska pseudotaktowa	!
.	.	8B-\	cae-	.	.	8g\J	.
4B-\	-lo-	4d\	-lo-	4r	.	4f\	.
8A\L	.	8c\L	.	4d\	cae-	4g\	.
8G\J	.	8B-\J	.	.	.	.	.
!LO:LB:g=original	!	!	!	!	!	!	!
4F\	.	4A\	.	4f\	-lo-	4a\	.
!LO:TX:t=P:problem=kreska pseudotaktowa	!	!LO:TX:t=P:problem=kreska pseudotaktowa	!	!	!	!	!
4G\	.	4B-\	.	8e\L	.	8g\L	.
!	!	!	!	!LO:TX:t=P:problem=kreska pseudotaktowa	!	!LO:TX:t=P:problem=kreska pseudotaktowa	!
.	.	.	.	8d\J	.	8f\J	.
!	!	!LO:LB:g=original	!	!	!	!	!
=13-	=13-	=13-	=13-	=13-	=13-	=13-	=13-
4A\	.	4c\	.	4c\	.	8e\	.
.	.	.	.	.	.	8e\	-ru(m)
!	!	!	!	!	!	!LO:LB:g=original	!
!	!	!	!	!	!	!LO:TX:t=P:problem=kreska pseudotaktowa	!
4B-\	.	8B-\L	.	4d\	.	4r	.
.	.	8A\J	.	.	.	.	.
!	!	!	!	!LO:TX:t=P:problem=# above	!	!	!
!	!	!	!	!LO:SIC:v:s=4en	!	!LO:N:vis=4	!
4c\	.	4G/	.	4e#X\	.	8r	.
.	.	.	.	.	.	8r	.
!	!	!LO:TX:t=P:problem=kreska pseudotaktowa	!	!	!	!	!
8B-\L	.	4A/	.	8d\L	.	4f\	cae-
!LO:TX:t=P:problem=kreska pseudotaktowa	!	!	!	!LO:TX:t=P:problem=kreska pseudotaktowa	!	!	!
8A\J	.	.	.	8c\J	.	.	.
4G\	.	4B-/	.	4B-\	.	4g\	-lo-
4A\	.	8A/L	.	4c\	.	8f\L	.
!	!	!	!	!	!	!LO:TX:t=P:problem=kreska pseudotaktowa	!
.	.	8G/J	.	.	.	8e\J	.
4B-\	.	4F/	.	4d\	.	4d\	.
!	!	!LO:TX:t=P:problem=kreska pseudotaktowa	!	!	!	!	!
8A\L	.	4G/	.	8c\L	.	4e\	.
!LO:TX:t=P:problem=kreska pseudotaktowa	!	!	!	!LO:TX:t=P:problem=kreska pseudotaktowa	!	!	!
8G\J	.	.	.	8B-\J	.	.	.
=14-	=14-	=14-	=14-	=14-	=14-	=14-	=14-
4F\	.	4A/	.	4A\	.	4f\	.
4G\	.	8G/L	.	4B-\	.	8e\L	.
!	!	!	!	!	!	!LO:TX:t=P:problem=kreska pseudotaktowa	!
.	.	8F/J	.	.	.	8d\J	.
!LO:TX:t=P:problem=kreska pseudotaktowa	!	!LO:TX:t=P:problem=kreska pseudotaktowa	!	!	!	!	!
2A\	.	2E/	-rum	4A\	-rum	2c#X/	.
.	.	.	.	8r	.	.	.
!	!	!	!	!LO:TX:t=P:problem=kreska pseudotaktowa	!	!	!
.	.	.	.	8A/	cae-	.	.
2.B-\	rum	2r	.	4F/	-lo-	4d\	.
.	.	.	.	8G/L	.	8e\L	.
!	!	!	!	!	!	!LO:TX:t=P:problem=kreska pseudotaktowa	!
.	.	.	.	8A/J	.	8f\J	.
!	!	!LO:TX:t=P:problem=kreska pseudotaktowa	!	!	!	!	!
.	.	2B-\	cae-	8B-\L	.	1g\	-ru(m)
.	.	.	.	8c\	.	.	.
4B-\	Re-	.	.	8d\	.	.	.
*	*	*	*	*custos:c	*	*	*
!	!	!	!	!LO:TX:t=P:problem=kreska pseudotaktowa	!	!	!
.	.	.	.	8e\J	.	.	.
!	!	!	!	!LO:LB:g=original	!	!	!
=15-	=15-	=15-	=15-	=15-	=15-	=15-	=15-
0A\	-gi-	4E/	-lo-	4c#X\	-rum	.	.
.	.	8F/L	.	4c#\	Re-	.	.
.	.	8G/J	.	.	.	.	.
!	!	!LO:TX:t=P:problem=kreska pseudotaktowa	!	!	!	!	!
.	.	2A/	.	1d\	-gi-	4f\	.
.	.	.	.	.	.	4e\	.
.	.	4F/	-rum	.	.	2f\	Re-
.	.	4F/	Re-	.	.	.	.
!	!	!LO:TX:t=P:problem=kreska pseudotaktowa	!	!LO:TX:t=P:problem=kreska pseudotaktowa	!	!	!
.	.	2A/	-gi-	2c#X\	-na	2e\	-gi-
=16-	=16-	=16-	=16-	=16-	=16-	=16-	=16-
4D,/	-na	4A/	-na	4d\	.	4f\	-na
2D/	ſal-	2A/	ſal-	2d\	ſal-	2f\	ſal-
!LO:TX:t=P:problem=kreska pseudotaktowa	!	!LO:TX:t=P:problem=kreska pseudotaktowa	!	!LO:TX:t=P:problem=kreska pseudotaktowa	!	!	!
4G\	-ue	4B-/	-ue	4B-\	-ve	4g\	-ve
4F\	Vir-	4F/	Vir-	4c\	Vir-	4a\	Vir-
4D\	-go	4B-/	-go	4d\	-go	4f\	-go
4.F\	Vir-	4.B-/	Vir-	4.c\	Vir-	4.f\	Vir-
!LO:TX:t=P:problem=kreska pseudotaktowa	!	!LO:TX:t=P:problem=kreska pseudotaktowa	!	!LO:TX:t=P:problem=kreska pseudotaktowa	!	!	!
8F\	-gi-	8A/	-gi-	8c\	-gi-	8f\	-gi-
=17-	=17-	=17-	=17-	=17-	=17-	=17-	=17-
*	*	*	*	*2\left	*	*	*
4BB-/	-num	2B-\	-num	2d\	-nu(m)	4f\	-nu(m)
4.BB-/	ſtel-	.	.	.	.	4.f\	Stel-
!	!	!LO:TX:t=P:problem=kreska pseudotaktowa	!	!LO:TX:t=P:problem=kreska pseudotaktowa	!	!	!
.	.	2r	.	2r	.	.	.
8BB-/	-la	.	.	.	.	8d\	-la
!	!	!	!	!	!	!LO:SIC:v:s=8e-	!
8C/	ma-	.	.	.	.	8e\	ma-
8D/	-tu-	.	.	.	.	8f\	-[tu-
!LO:LB:g=original	!	!LO:LB:g=original	!	!	!	!	!
!LO:TX:t=P:problem=kreska pseudotaktowa	!	!	!	!	!	!	!
1E-X\	-ti-	4r	.	4r	.	1g\	-ti]-
.	.	4.G/	ſtel-	4.B-\	ſtel-	.	.
.	.	8G/	-la	8B-\	-la	.	.
.	.	8A/	ma-	8c\	ma-	.	.
!	!	!LO:TX:t=P:problem=kreska pseudotaktowa	!	!LO:TX:t=P:problem=kreska pseudotaktowa	!	!	!
.	.	8B-/	-tu-	8d\	-tu-	.	.
!	!	!	!	!	!	!LO:LB:g=original	!
=18-	=18-	=18-	=18-	=18-	=18-	=18-	=18-
!	!	!LO:TX:t=P:problem=kreska pseudotaktowa	!	!	!	!LO:SIC:v:s=4e-	!
4C/	-na	1c\	-ti-	1e-X\	-ti-	4e\	-na
!	!	!	!	!	!	!LO:SIC:v:s=4.e-	!
4.C/	ſtel-	.	.	.	.	4.e\	Stel-
!	!	!	!	!	!	!LO:SIC:v:s=8e-	!
8C/	-la	.	.	.	.	8e\	-la
8D/	ma-	.	.	.	.	8f\	Ma-
!LO:TX:t=P:problem=kreska pseudotaktowa	!	!	!	!	!	!	!
8E-y/	-tu-	.	.	.	.	8g\	-tu-
!	!	!	!	!	!	!LO:SIC:v:s=4.a#	!
4.F\	-ti-	4A\	-na	4c\	-na	4.a#X\	-ti-
*	*	*	*	*2\right	*	*	*
.	.	2f\	ma-	2c\	ſtel-	.	.
!	!	!	!	!	!	!LO:SIC:v:s=8a#	!
8F\	-na	.	.	.	.	8a#\	-na
!	!	!	!	!	!	!LO:SIC:v:s=4a#	!
*	*ij	*	*	*	*	*	*
4F\	ma-	.	.	.	.	4a#\	Ma-
!	!	!	!	!LO:TX:t=P:problem=kreska pseudotaktowa	!	!	!
!LO:TX:t=P:problem=kreska pseudotaktowa	!	!LO:TX:t=P:problem=kreska pseudotaktowa	!	!LO:TX:t=P:problem=♭ above	!	!	!
4E-X\	-tu-	4c\	-tu-	4e-X\	-la	4g\	-tu-
=19-	=19-	=19-	=19-	=19-	=19-	=19-	=19-
!LO:TX:t=P:problem=kreska pseudotaktowa	!	!LO:N:acc=#	!	!	!	!	!
1G\	-ti-	4Bn\	-ti-	4e-X\	[m]a-	4g\	-ti-
.	.	2c\	.	8d\L	-tu-	8f\L	.
!	!	!	!	!	!	!LO:SIC:v:s=8e-	!
.	.	.	.	8c\J	.	8e\J	.
*	*	*	*	*custos:c	*	*	*
!	!	!	!	!LO:TX:t=P:problem=kreska pseudotaktowa	!	!	!
.	.	.	.	2d\	-ti-	4d\	.
!	!	!LO:TX:t=P:problem=kreska pseudotaktowa	!	!	!	!	!
.	.	4B\	.	.	.	4g\	.
!	!	!	!	!LO:LB:g=original	!	!	!
!	!	!	!	!	!	!LO:SIC:v:s=4e-	!
4C/	-na	4c\	-na	4c\	-na	4e\	-na
*	*Xij	*	*	*	*	*	*
!	!	!	!	!	!	!LO:SIC:v:s=2e-	!
2C/	ſal-	2G/	ſal-	2c\	ſal-	2e\	ſal-
!LO:TX:t=P:problem=kreska pseudotaktowa	!	!LO:TX:t=P:problem=kreska pseudotaktowa	!	!LO:TX:t=P:problem=kreska pseudotaktowa	!	!	!
4BB-/	-ue	4G/	-ue	4d\	-ue	4d\	-ve
=20-	=20-	=20-	=20-	=20-	=20-	=20-	=20-
!	!	!	!	!	!	!LO:SIC:v:s=8e-	!
4AA/	ple-	4A\	ple-	4c\	ple-	8e\	ple-
.	.	.	.	.	.	8f\	-na
4GG/	-na	8B-\L	-na	4B-\	-na	4g\	.
.	.	8c\J	.	.	.	.	.
4.D/	gra-	4.d\	gra-	4.A/	gra-	4.f#X\	gra-
!LO:TX:t=P:problem=kreska pseudotaktowa	!	!LO:TX:t=P:problem=kreska pseudotaktowa	!	!LO:TX:t=P:problem=kreska pseudotaktowa	!	!	!
8D/	-ti-	8d\	-ti-	8A/	-ti-	8f#\	-[ti]-
4D/	-a	4d\	-a	4A/	-ae	4f#\	-ae
4G\	cla-	4B-\	cla-	4r	.	4r	.
4C\	-ra	4F/	-ra	4r	.	4r	.
!	!	!	!	!LO:TX:t=P:problem=kreska pseudotaktowa	!	!	!
8C\	lux	8F/	lux	4d\	cla-	4fn\	cla-
!LO:TX:t=P:problem=kreska pseudotaktowa	!	!LO:TX:t=P:problem=kreska pseudotaktowa	!	!	!	!	!
8E\	di-	8G/	di-	.	.	.	.
=21-	=21-	=21-	=21-	=21-	=21-	=21-	=21-
*custos:C	*	*	*	*	*	*	*
2F\	-ui-	2A/	-ui-	4A\	-ta	4c\	-ra
.	.	.	.	8A\	lux	8c/	lux
.	.	.	.	8B-\	di-	8d\	Di-
!LO:LB:g=original	!	!	!	!LO:TX:t=P:problem=kreska pseudotaktowa	!	!	!
4C/	-na	4G/	-na	2c\	-ui-	2e-X\	-vi-
!	!	!LO:TX:t=P:problem=kreska pseudotaktowa	!	!	!	!	!
!LO:TX:t=P:problem=kreska pseudotaktowa	!	!LO:TX:t=P:problem=♭ above	!	!	!	!	!
*	*ij	*	*	*	*	*	*
4C/	cla-	4e-X\	cla-	.	.	.	.
!	!	!LO:LB:g=original	!	!	!	!	!
4GG/	-ra	4B-\	-ra	4B-\	-na	4d\	-na
*	*	*	*	*	*ij	*	*ij
8GG/	lux	8B-\	lux	4B-\	cla-	4g\	cla-
8AA/	di-	8c\	di-	.	.	.	.
!	!	!	!	!	!	!LO:LB:g=original	!
!LO:TX:t=P:problem=kreska pseudotaktowa	!	!LO:TX:t=P:problem=kreska pseudotaktowa	!	!	!	!	!
2BB-/	-ui-	2d\	-ui-	4F/	-ra	4d\	-ra
.	.	.	.	8F/	lux	8d\	lux
!	!	!	!	!LO:TX:t=P:problem=kreska pseudotaktowa	!	!	!
.	.	.	.	8G/	di-	8e-\	Di-
=22-	=22-	=22-	=22-	=22-	=22-	=22-	=22-
4FF/	-na	4c\	-na	2A/	-ui-	2f\	-vi-
*	*	*	*ij	*	*	*	*
4F\	cla-	4c\	cla-	.	.	.	.
4C/	-ra	4E-X/	-ra	4G/	-na	4e-X\	-na
!	!	!	!	!LO:TX:t=P:problem=kreska pseudotaktowa	!	!	!
8C/	lux	8E-/	lux	4c\	cla-	4e-\	cla-
!LO:TX:t=P:problem=kreska pseudotaktowa	!	!LO:TX:t=P:problem=kreska pseudotaktowa	!	!	!	!	!
8D/	di-	8F/	di-	.	.	.	.
2E-X\	-ui-	2G/	-ui-	4G/	-ra	4B-/	-ra
.	.	.	.	8G/	lux	8B-/	lux
.	.	.	.	8A/	di-	8c/	Di-
!	!	!	!	!LO:TX:t=P:problem=kreska pseudotaktowa	!	!	!
4D\	-na	4F/	-na	2B-\	-ui-	2d\	-vi-
*	*Xij	*	*Xij	*	*	*	*
8D\	lux	8F/	lux	.	.	.	.
!LO:TX:t=P:problem=kreska pseudotaktowa	!	!LO:TX:t=P:problem=kreska pseudotaktowa	!	!	!	!	!
8E-\	di-	8G/	di-	.	.	.	.
=23-	=23-	=23-	=23-	=23-	=23-	=23-	=23-
!LO:TX:t=P:problem=kreska pseudotaktowa	!	!LO:TX:t=P:problem=kreska pseudotaktowa	!	!	!	!	!
1F\	-ui-	1F/	-ui-	4B-\	-na	4c/	-na
*	*	*	*	*	*	*	*Xij
.	.	.	.	8A\L	lux	8c/	lux
.	.	.	.	8G\J	di-	8c/	Di-
!	!	!	!	!LO:LB:g=original	!	!	!
!	!	!	!	!LO:TX:t=P:problem=kreska pseudotaktowa	!	!	!
.	.	.	.	2A\	-ui-	2f\	-vi-
4BB-/	-na	4F/	-na	4B-\	-na	4f\	-na
*	*	*	*	*	*Xij	*	*
4B-\	mun-	4B-\	mun-	4d\	mun-	4f\	Mun-
4F\	-di	4A\	-di	4c\	-di	4f\	-di
8E-X\	in	8B-\	in	8c\	in	8g\	in
!LO:TX:t=P:problem=kreska pseudotaktowa	!	!LO:TX:t=P:problem=kreska pseudotaktowa	!	!LO:TX:t=P:problem=kreska pseudotaktowa	!	!	!
8D\	au-	8B-\	au-	8d\	au-	8f\	au-
=24-	=24-	=24-	=24-	=24-	=24-	=24-	=24-
2.C/	-xi-	2.c\	-xi-	4d\	-xi-	4f\	-xi-
.	.	.	.	8c\L	.	8e\L	.
.	.	.	.	8B-\J	.	8d\J	.
.	.	.	.	4.c\	.	4.e\	.
!LO:TX:t=P:problem=kreska pseudotaktowa	!	!LO:TX:t=P:problem=kreska pseudotaktowa	!	!	!	!	!
4C/	-li-	4G/	-li-	.	.	.	.
!	!	!	!	!LO:TX:t=P:problem=kreska pseudotaktowa	!	!	!
.	.	.	.	8c\	-li-	8e\	-li-
4GG/	-um	2G/	-um	4B-\	-um	2d\	-um
8G\	Do-	.	.	4r	.	.	.
*custos:E	*	*	*	*	*	*	*
8F\	-mi-	.	.	.	.	.	.
!LO:LB:g=original	!	!LO:TX:t=P:problem=kreska pseudotaktowa	!	!	!	!	!
4E-X\	-na	2r	.	4r	.	2r	.
!LO:TX:t=P:problem=kreska pseudotaktowa	!	!	!	!	!	!	!
!LO:N:acc=#	!	!	!	!	!	!	!
4BBn/	fe-	.	.	8g\	Do-	.	.
!	!	!	!	!LO:TX:t=P:problem=kreska pseudotaktowa	!	!	!
.	.	.	.	8f\	-mi-	.	.
=25-	=25-	=25-	=25-	=25-	=25-	=25-	=25-
4.C/	-ſti-	2r	.	4e-X\	-na	4r	.
*	*	*	*	*	*ij	*	*
.	.	.	.	8e-\	Do-	8g\	Do-
8D/	.	.	.	8d\	-mi-	8f\	-mi-
!	!	!	!	!	!	!LO:SIC:v:s=4e-	!
8E-X\L	.	4r	.	4c\	-na	4e\	-na
*	*	*	*	*	*Xij	*	*
8F\J	.	.	.	.	.	.	.
!	!	!	!	!LO:TX:t=P:problem=kreska pseudotaktowa	!	!LO:TX:t=P:problem=kreska taktowa poprawiona na 4B	!
!LO:TX:t=P:problem=kreska pseudotaktowa	!	!	!	!LO:N:acc=#	!	!LO:SIC:v:s=4Bn	!
4G\	.	8G/	Do-	4Bn\	fe-	4B-/	.
!	!	!LO:TX:t=P:problem=kreska pseudotaktowa	!	!	!	!	!
.	.	8F/	-mi-	.	.	.	.
!	!	!LO:SIC:v:s=4E-	!	!LO:TX:t=P:problem=♭ above	!	!	!
2.C/	-na	8E/L	-na	8e-X\L	-sti-	4.c\	fe-
.	.	8F/	.	8d\J	.	.	.
.	.	8G/	.	2c\	.	.	.
.	.	16A/L	.	.	.	8d\	-ſti-
.	.	16B-/JJ	.	.	.	.	.
!	!	!LO:LB:g=original	!	!	!	!LO:LB:g=original	!
!	!	!	!	!	!	!LO:SIC:v:s=8e-	!
.	.	4c\	fe-	.	.	8e\L	.
.	.	.	.	.	.	8f\J	.
!	!	!	!	!LO:TX:t=P:problem=# above	!	!	!
!	!	!	!	!LO:TX:t=P:problem=kreska pseudotaktowa	!	!	!
!LO:TX:t=P:problem=kreska pseudotaktowa	!	!LO:TX:t=P:problem=kreska pseudotaktowa	!	!LO:N:acc=#	!	!	!
4GG/	fe-	4d\	-ſti-	4Bn\	.	4g\	.
=26-	=26-	=26-	=26-	=26-	=26-	=26-	=26-
!	!	!LO:TX:t=P:problem=♭ above	!	!	!	!LO:SIC:v:s=4e-	!
4.C/	-ſti-	8e-X\L	.	4c\	-na	4e\	-na
.	.	8d\J	.	.	.	.	.
!	!	!	!	!	!	!LO:SIC:v:s=8e-	!
*	*	*	*	*	*	*	*ij
.	.	2c\	.	8g\	Do-	8e\	Do-
*	*	*	*	*custos:e	*	*	*
8D/	.	.	.	8f\	-mi-	8d\	-mi-
!	!	!	!	!LO:LB:g=original	!	!	!
8E-X\L	.	.	.	4e-X\	-na	4c/	-na
8F\J	.	.	.	.	.	.	.
!LO:TX:t=P:problem=kreska pseudotaktowa	!	!LO:TX:t=P:problem=kreska pseudotaktowa	!	!LO:TX:t=P:problem=kreska pseudotaktowa	!	!LO:N:acc=#	!
4G\	.	4G/	.	4d\	fe-	4Bn/	fe-
4D,/	-na	4A/	-na	2d\	-sti-	8d\	-ſti-
.	.	.	.	.	.	8d\	-na
8D/	Do-	4r	.	.	.	8g\	Do-
8C/	-mi-	.	.	.	.	8a\	-mi-
4BB-/	-na	4r	.	4d\	-na	4b-\	-na
!LO:TX:t=P:problem=kreska pseudotaktowa	!	!	!	!LO:TX:t=P:problem=kreska pseudotaktowa	!	!	!
4FF#X/	fe-	8d\	Do-	4r	.	4a\	fe-
!	!	!LO:TX:t=P:problem=kreska pseudotaktowa	!	!	!	!	!
.	.	8c\	-mi-	.	.	.	.
=27-	=27-	=27-	=27-	=27-	=27-	=27-	=27-
4.GG/	-ſti-	4.B-/	-na	4r	.	4g\	-ſti-
.	.	.	.	8d\	Do-	4g\	-na
*	*	*	*	*	*	*	*Xij
8AA/L	.	8A/	.	8c\	-mi-	.	.
8BB-/	.	4G/	.	4B-\	-na	4r	.
8C/J	.	.	.	.	.	.	.
!LO:TX:t=P:problem=kreska pseudotaktowa	!	!LO:TX:t=P:problem=kreska pseudotaktowa	!	!LO:TX:t=P:problem=kreska pseudotaktowa	!	!	!
4D/	.	4F#X/	fe-	4A\	fe-	8d\	D(o-
.	.	.	.	.	.	8c/	-mi)-
2GG/	na	8B-/L	-ſti-	4.G/	-sti-	4.B-/	-na
.	.	8A/J	.	.	.	.	.
.	.	2G/	.	.	.	.	.
.	.	.	.	8A/	.	8A/	fe-
4r	.	.	.	8B-\L	.	4G/	-ſti-
.	.	.	.	8c\J	.	.	.
!	!	!	!	!LO:TX:t=P:problem=kreska pseudotaktowa	!	!	!
8D/	Do-	8F#X/	-na	4d\	.	4A/	.
*custos:BB-	*	*	*	*	*	*	*
!LO:TX:t=P:problem=kreska pseudotaktowa	!	!	!	!	!	!	!
!	!	!LO:TX:t=P:problem=kreska pseudotaktowa	!	!	!	!	!
8C/	-mi-	8F#/	fe-	.	.	.	.
!LO:LB:g=original	!	!	!	!	!	!	!
=28-	=28-	=28-	=28-	=28-	=28-	=28-	=28-
4BB-/	-na	4B-\	-sti-	4d\	-na	8B-/	.
.	.	.	.	.	.	8c\	.
*	*	*	*	*	*ij	*	*
4FF#X/	fe-	4A\	-na	8d\	Do-	8d\	-na
.	.	.	.	8c\	-mi-	8d\	.
8GG/L	-sti-	4G/	.	4B-\	-na	4r	.
8AA/	.	.	.	.	.	.	.
!	!	!	!	!LO:TX:t=P:problem=kreska pseudotaktowa	!	!	!
*	*	*	*	*	*	*	*ij
8BB-/	.	8r	.	4B-\	fe-	8d\	fe-
!LO:TX:t=P:problem=kreska pseudotaktowa	!	!LO:TX:t=P:problem=kreska pseudotaktowa	!	!	!	!	!
8C/J	.	8G/	fe-	.	.	8e\	-ſti-
2D/	.	4.F#y/	-sti-	8A\L	-sti-	4f#X\	.
.	.	.	.	16B-\L	.	.	.
.	.	.	.	16c\JJ	.	.	.
.	.	.	.	2d\	.	4d\	.
.	.	16G/LL	.	.	.	.	.
.	.	16A/JJ	.	.	.	.	.
4.BB-/	-na	4B-\	.	.	.	2g\	-na
.	.	8B-\	-na	8d\	-na	.	.
*	*	*	*	*	*Xij	*	*Xij
!LO:TX:t=P:problem=kreska pseudotaktowa	!	!LO:TX:t=P:problem=kreska pseudotaktowa	!	!LO:TX:t=P:problem=kreska pseudotaktowa	!	!	!
8C/	fe-	8B-\	fe-	8d\	fe-	.	.
!	!	!LO:LB:g=original	!	!	!	!LO:LB:g=original	!
=29-	=29-	=29-	=29-	=29-	=29-	=29-	=29-
1D\	-ſti-	4B-\	-ſti-	4d\	-ſti-	8f#X\	.
.	.	.	.	.	.	8f#\	fe-
.	.	8A\L	.	8c\L	.	2g\	-ſti-
.	.	8G\J	.	8B-\J	.	.	.
!	!	!	!	!LO:TX:t=P:problem=kreska pseudotaktowa	!	!	!
.	.	4A\	.	2A\	.	.	.
!	!	!LO:TX:t=P:problem=kreska pseudotaktowa	!	!	!	!LO:TX:t=P:problem=# above	!
.	.	4d\	.	.	.	4f#X\	.
!	!	!	!	!LO:TX:t=P:problem=kreska pseudotaktowa	!	!	!
!	!	!	!	!LO:TX:t=P:problem=# above	!	!	!
!	!	!	!	!LO:N:acc=#	!	!	!
1GG/	-na	1d\	-na	1Bn\	-na	1g\	-na
!	!	!	!	!LO:LB:g=original	!	!	!
=30||-	=30||-	=30-	=30-	=30-	=30-	=-30-	=-30-
*M3/1	*	*M3/1	*	*M3/1	*	*M3/1	*
1r	.	1r	.	1r	.	1r	.
1G\	Ab	1B-\	ab	1d\	Ab	1g\	ab
!LO:TX:t=P:problem=kreska pseudotaktowa	!	!LO:TX:t=P:problem=kreska pseudotaktowa	!	!LO:TX:t=P:problem=kreska pseudotaktowa	!	!LO:TX:t=P:problem=kreska pseudotaktowa	!
1G\	ae-	1B-\	ae-	1d\	ae-	1g\	ae-
=31-	=31-	=31-	=31-	=31-	=31-	=31-	=31-
0G\	-ter-	0B-\	-ter-	0d\	-ter-	0g\	-ter-
!LO:TX:t=P:problem=kreska pseudotaktowa	!	!LO:TX:t=P:problem=kreska pseudotaktowa	!	!LO:TX:t=P:problem=kreska pseudotaktowa	!	!LO:TX:t=P:problem=kreska pseudotaktowa	!
1C/	-no	1c\	-no	1e\	-no	1g\	-no
=32-	=32-	=32-	=32-	=32-	=32-	=32-	=32-
1.D\	Do-	1.A\	Do-	1.d\	Do-	1.f#X\	D(o-
2D/	-mi-	2A\	-mi-	2d\	-mi-	2f#\	-mi)-
!LO:TX:t=P:problem=kreska pseudotaktowa	!	!LO:TX:t=P:problem=kreska pseudotaktowa	!	!LO:TX:t=P:problem=kreska pseudotaktowa	!	!LO:TX:t=P:problem=kreska pseudotaktowa	!
1D\	-nus	1A\	-nus	1d\	-n(us)	1f#\	-n(us)
=33-	=33-	=33-	=33-	=33-	=33-	=33-	=33-
1r	.	1r	.	1r	.	1r	.
*	*	*	*ij	*	*ij	*	*
1B-\	ab	1B-\	ab	1d\	Ab	1f\	ab
!LO:TX:t=P:problem=kreska pseudotaktowa	!	!LO:TX:t=P:problem=kreska pseudotaktowa	!	!LO:TX:t=P:problem=kreska pseudotaktowa	!	!LO:TX:t=P:problem=kreska pseudotaktowa	!
1B-\	ae-	1B-\	ae-	1d\	ae-	1f\	ae-
=34-	=34-	=34-	=34-	=34-	=34-	=34-	=34-
0B-\	-ter-	0B-\	-ter-	0d\	-ter-	0f\	-ter-
!LO:TX:t=P:problem=kreska pseudotaktowa	!	!LO:TX:t=P:problem=kreska pseudotaktowa	!	!LO:TX:t=P:problem=kreska pseudotaktowa	!	!LO:TX:t=P:problem=kreska pseudotaktowa	!
1E-X\	-no	1G/	-no	1e-X\	-no	1g\	-no
=35-	=35-	=35-	=35-	=35-	=35-	=35-	=35-
1.F\	Do-	1.A\	Do-	1.c\	Do-	1.f\	D(o-
2F\	-mi-	2A\	-mi-	2c\	-mi-	2f\	-mi)-
!	!	!LO:TX:t=P:problem=kreska pseudotaktowa	!	!LO:TX:t=P:problem=kreska pseudotaktowa	!	!LO:TX:t=P:problem=kreska pseudotaktowa	!
1F\	-nus	1A\	-nus	1c\	-n(us)	1f\	-n(us)
*	*	*	*Xij	*	*Xij	*	*
!LO:LB:g=original	!	!	!	!	!	!	!
=36-	=36-	=36-	=36-	=36-	=36-	=36-	=36-
1.B-\	te	1.B-\	te	1.d\	te	1.f\	te
2A\	prae-	2c\	prae-	2c\	prae-	2f\	prae-
!LO:TX:t=P:problem=kreska pseudotaktowa	!	!LO:TX:t=P:problem=kreska pseudotaktowa	!	!LO:TX:t=P:problem=kreska pseudotaktowa	!	!LO:TX:t=P:problem=kreska pseudotaktowa	!
1G\	-or-	1d\	-or-	1B-\	-or-	1g\	-or-
!	!	!LO:LB:g=original	!	!	!	!	!
=37-	=37-	=37-	=37-	=37-	=37-	=37-	=37-
1E-X\	-di-	1e-X\	-di-	1B-\	-di-	1g\	-di-
!LO:TX:t=P:problem=kreska pseudotaktowa	!	!LO:TX:t=P:problem=kreska pseudotaktowa	!	!	!	!	!
0F\	-na-	0c\	-na-	(<1B-\	-na-	0f\	-na-
*	*	*	*	*custos:B-	*	*	*
!	!	!	!	!LO:TX:t=P:problem=kreska pseudotaktowa	!	!	!
.	.	.	.	1A\)	.	.	.
!	!	!	!	!LO:PB:g=original	!	!LO:LB:g=original	!
=38-	=38-	=38-	=38-	=38-	=38-	=38-	=38-
1BB-/	-uit	1d\	-uit	1B-\,	-uit	1f\	-vit
1r	.	1D/	Ma-	1F/	Ma-	1A/	Ma-
!LO:TX:t=P:problem=kreska pseudotaktowa	!	!LO:TX:t=P:problem=kreska pseudotaktowa	!	!LO:TX:t=P:problem=kreska pseudotaktowa	!	!LO:TX:t=P:problem=kreska pseudotaktowa	!
1r	.	1G/	-tre(m)	1G/	-tre(m)	1B-/	-tre(m)
=39-	=39-	=39-	=39-	=39-	=39-	=39-	=39-
00.r	.	0F/	U-	0A\	U-	0c\	V-
!	!	!LO:TX:t=P:problem=kreska pseudotaktowa	!	!LO:TX:t=P:problem=kreska pseudotaktowa	!	!LO:TX:t=P:problem=kreska pseudotaktowa	!
.	.	1D/	-ni-	1B-\	-ni-	1d\	-ni-
=40-	=40-	=40-	=40-	=40-	=40-	=40-	=40-
.	.	0C/	-ge-	0c\	-ge-	0e-X\	-ge-
!	!	!LO:TX:t=P:problem=kreska pseudotaktowa	!	!LO:TX:t=P:problem=kreska pseudotaktowa	!	!LO:TX:t=P:problem=kreska pseudotaktowa	!
.	.	1C/	-ni-	1c\	-ni-	1e-\	-ni-
=41-	=41-	=41-	=41-	=41-	=41-	=41-	=41-
!	!	!LO:TX:t=P:problem=tekst -te poprawione na -ti	!	!LO:N:acc=#	!	!	!
00.r	.	1G/	-ti	1Bn\	-ti	1d\	-ti
.	.	1G/	Ver-	1B\	Ver-	1d\	Ver-
!	!	!LO:TX:t=P:problem=kreska pseudotaktowa	!	!LO:TX:t=P:problem=kreska pseudotaktowa	!	!LO:TX:t=P:problem=kreska pseudotaktowa	!
.	.	1G/	-bi	1B\	-bi	1d\	-bi
=42-	=42-	=42-	=42-	=42-	=42-	=42-	=42-
!	!	!LO:TX:t=P:problem=kreska pseudotaktowa	!	!	!	!	!
*	*	*	*	*lig	*	*	*
.	.	0.F/	quo	1d\	quo	1f\	quo
.	.	.	.	1c\	.	1e\	.
*	*	*	*	*Xlig	*	*	*
!	!	!	!	!LO:TX:t=P:problem=kreska pseudotaktowa	!	!	!
!	!	!	!	!LO:N:acc=#	!	!LO:TX:t=P:problem=kreska pseudotaktowa	!
.	.	.	.	1Bn\	Cre-	1d\	cre-
=43-	=43-	=43-	=43-	=43-	=43-	=43-	=43-
!LO:TX:t=P:problem=kreska pseudotaktowa	!	!	!	!	!	!LO:TX:t=P:problem=0e- poprawione na 1e-	!
0.r	.	1F/	Cre-	0c\	-a-	1e-X\	.
!	!	!LO:TX:t=P:problem=kreska pseudotaktowa	!	!	!	!LO:TX:t=P:problem=kreska pseudotaktowa	!
.	.	0G/	-a-	.	.	0d\	-a-
!	!	!	!	!LO:TX:t=P:problem=kreska pseudotaktowa	!	!	!
!	!	!	!	!LO:N:acc=#	!	!	!
.	.	.	.	1Bn\	.	.	.
=44-	=44-	=44-	=44-	=44-	=44-	=44-	=44-
1r	.	1C/	uit	1c\,	uit	1c\	-vit
1c\	Ma-	1G/	Ma-	1c\	Ma-	1e\	Ma-
!LO:TX:t=P:problem=kreska pseudotaktowa	!	!LO:TX:t=P:problem=kreska pseudotaktowa	!	!LO:TX:t=P:problem=kreska pseudotaktowa	!	!LO:TX:t=P:problem=kreska pseudotaktowa	!
1A\	-trem	1c\	-tre(m)	1c\	-trem	1f\	-tre(m)
=45-	=45-	=45-	=45-	=45-	=45-	=45-	=45-
0B-\	U-	0B-\	U-	0d\	U-	0f\	V-
!LO:TX:t=P:problem=kreska pseudotaktowa	!	!LO:TX:t=P:problem=kreska pseudotaktowa	!	!LO:TX:t=P:problem=kreska pseudotaktowa	!	!LO:TX:t=P:problem=kreska pseudotaktowa	!
1G\	-ni-	1B-\	-ni-	1d\	-ni-	1g\	-ni-
!	!	!LO:PB:g=original	!	!	!	!	!
=46-	=46-	=46-	=46-	=46-	=46-	=46-	=46-
!	!	!	!	!	!	!LO:TX:t=P:problem=# above	!
1.D\	-ge-	1.A\	-ge-	1.d\	-ge-	1.f#X\	-ge-
2D/	-ni-	2A\	-ni-	2d\	-ni-	2f#\	-ni-
!LO:TX:t=P:problem=kreska pseudotaktowa	!	!LO:TX:t=P:problem=kreska pseudotaktowa	!	!LO:TX:t=P:problem=kreska pseudotaktowa	!	!LO:TX:t=P:problem=kreska pseudotaktowa	!
1D\	-ti	1A\	-ti	1d\	-ti	1f#\	-ti
!	!	!	!	!LO:LB:g=original	!	!	!
=47-	=47-	=47-	=47-	=47-	=47-	=47-	=47-
0D\	Ver-	0d\	Ver-	1r	.	0f#X\	Ver-
.	.	.	.	1A\	Ver-	.	.
*	*	*	*	*	*	*custos:f	*
!	!	!	!	!	!	!LO:TX:t=P:problem=kreska pseudotaktowa	!
!	!	!	!	!	!	!LO:TX:t=P:problem=custos f zamiast custos g	!
!LO:TX:t=P:problem=kreska pseudotaktowa	!	!LO:TX:t=P:problem=kreska pseudotaktowa	!	!LO:TX:t=P:problem=kreska pseudotaktowa	!	!	!
1D\	-bi	1d\	-bi	1A\	-bi	1f#\	-bi
!	!	!	!	!	!	!LO:PB:g=original	!
=48-	=48-	=48-	=48-	=48-	=48-	=48-	=48-
*	*	*	*	*lig	*	*	*
0C/	quo	0e-X\	quo	1c\	quo	(0g\	quo
.	.	.	.	1B-\	.	.	.
*	*	*	*	*Xlig	*	*	*
!LO:TX:t=P:problem=kreska pseudotaktowa	!	!LO:TX:t=P:problem=kreska pseudotaktowa	!	!LO:TX:t=P:problem=kreska pseudotaktowa	!	!LO:TX:t=P:problem=kreska pseudotaktowa	!
1D\	Cre-	1d\	Cre-	1A\	Cre-	1f#X\)	cre-
=49-	=49-	=49-	=49-	=49-	=49-	=49-	=49-
2BB-/	-a-	1G/	-a-	1B-\	-a-	(0g\	-a-
2C/	.	.	.	.	.	.	.
!LO:TX:t=P:problem=kreska pseudotaktowa	!	!	!	!LO:TX:t=P:problem=kreska pseudotaktowa	!	!	!
0D\	.	1A\	.	0A\	.	.	.
!	!	!	!	!	!	!LO:TX:t=P:problem=kreska pseudotaktowa	!
!	!	!LO:TX:t=P:problem=kreska pseudotaktowa	!	!	!	!LO:TX:t=P:problem=# above	!
.	.	1d\	.	.	.	1f#X\)	-vit
!LO:PB:g=original	!	!	!	!	!	!	!
=50-	=50-	=50-	=50-	=50-	=50-	=50-	=50-
!	!	!LO:TX:t=P:problem=kreska pseudotaktowa	!	!	!	!	!
1GG/	-uit	0.d\	-uit	1B-\	-uit	2d\	ter-
.	.	.	.	.	.	2d\	-ra(m)
2GG/	ter-	.	.	1r	.	1g\	pon-
2GG/	-ram	.	.	.	.	.	.
!LO:TX:t=P:problem=kreska pseudotaktowa	!	!	!	!	!	!LO:TX:t=P:problem=kreska pseudotaktowa	!
1C/	Pon-	.	.	2G/	ter-	1e\	-tu(m)
!	!	!	!	!LO:TX:t=P:problem=kreska pseudotaktowa	!	!	!
.	.	.	.	2G/	-ra(m)	.	.
=51-	=51-	=51-	=51-	=51-	=51-	=51-	=51-
1AA/	-tu(m)	1r	.	1c\	Pon-	2a\	ae-
.	.	.	.	.	.	2a\	-the-
2D/	ae-	1r	.	1A\	-tu(m)	1f\	-ra
2D/	-the-	.	.	.	.	.	.
!LO:TX:t=P:problem=kreska pseudotaktowa	!	!	!	!	!	!	!
*	*	*	*	*	*	*	*ij
1BB-/	-ra	2F/	ter-	2d\	ae-	2f\	ter-
!	!	!LO:TX:t=P:problem=kreska pseudotaktowa	!	!LO:TX:t=P:problem=kreska pseudotaktowa	!	!LO:TX:t=P:problem=kreska pseudotaktowa	!
.	.	2F/	-ram	2d\	-the-	2f\	-ra(m)
=52-	=52-	=52-	=52-	=52-	=52-	=52-	=52-
*	*ij	*	*	*	*	*	*
2BB-/	ter-	1B-\	Pon-	1B-\	-ra	1b-\	pon-
2BB-/	-ram	.	.	.	.	.	.
1E-X\	Pon-	1G/	-tu(m)	2B-\	ter-	1g\	-tu(m)
.	.	.	.	2B-\	-ram	.	.
!LO:TX:t=P:problem=kreska pseudotaktowa	!	!	!	!LO:TX:t=P:problem=kreska pseudotaktowa	!	!	!
1C/	-tu(m)	2c\	ae-	1e-X\	Pon-	2g\	ae-
!	!	!LO:TX:t=P:problem=kreska pseudotaktowa	!	!	!	!LO:TX:t=P:problem=kreska pseudotaktowa	!
.	.	2c\	-the-	.	.	2g\	-the-
=53-	=53-	=53-	=53-	=53-	=53-	=53-	=53-
2F\	ae-	2A\	-ra	1c\	-tu(m)	1f\	-ra
2F\	-the-	2A\	te	.	.	.	.
2D\	-ra	1d\	pul-	2f\	ae-	1r	.
*	*Xij	*	*	*	*	*	*Xij
2D\	te	.	.	2f\	-the-	.	.
!LO:TX:t=P:problem=kreska pseudotaktowa	!	!	!	!LO:TX:t=P:problem=kreska pseudotaktowa	!	!	!
1G\	pul-	2B-/	-chra(m)	1d\	-ra	2r	.
*	*	*custos:c	*	*	*	*	*
!	!	!LO:TX:t=P:problem=kreska pseudotaktowa	!	!	!	!	!
!	!	!	!	!	!	!LO:TX:t=P:problem=kreska pseudotaktowa	!
.	.	2G/	or-	.	.	2d\	te
!	!	!LO:LB:g=original	!	!LO:LB:g=original	!	!	!
=54-	=54-	=54-	=54-	=54-	=54-	=54-	=54-
2E-X\	-chram	2c\	-na-	1r	.	2g\	pul-
!	!	!	!	!	!	!LO:SIC:v:s=2e-	!
2C/	or-	2B-\	.	.	.	2e\	-chra(m)
2F\	-na-	2A/	.	1r	.	1c\	or-
2E-\	.	2G/	.	.	.	.	.
!	!	!	!	!LO:TX:t=P:problem=kreska pseudotaktowa	!	!	!
!	!	!	!	!LO:TX:t=P:problem=2A poprawione na 1A	!	!	!
2D\	.	2F/	.	1A\	te	2f\	-na-
*custos:BB-	*	*	*	*	*	*	*
!LO:TX:t=P:problem=kreska pseudotaktowa	!	!	!	!	!	!LO:TX:t=P:problem=kreska pseudotaktowa	!
!	!	!	!	!	!	!LO:SIC:v:s=2e-	!
2C\	.	4G/	.	.	.	2e\	.
!	!	!LO:TX:t=P:problem=kreska pseudotaktowa	!	!	!	!	!
.	.	4A/	.	.	.	.	.
!LO:LB:g=original	!	!	!	!	!	!LO:LB:g=original	!
=55-	=55-	=55-	=55-	=55-	=55-	=55-	=55-
2BB-/	.	2B-\	.	1d\	Pul-	2d\	.
!	!	!	!	!	!	!LO:SIC:v:s=4e-	!
4C/	.	2A\	.	.	.	4e\	.
4D/	.	.	.	.	.	4f\	.
2E-y\	.	2G\	.	2B-\	-chra(m)	2g\	.
2D\	.	4A\	.	2B-\	or-	2f\	.
.	.	4B-\	.	.	.	.	.
!	!	!	!	!LO:TX:t=P:problem=♭ above	!	!LO:SIC:v:s=2e-	!
2C/	.	2c\	.	2e-X\	-na-	2e\	-[vit]
!	!	!LO:TX:t=P:problem=kreska pseudotaktowa	!	!LO:TX:t=P:problem=kreska pseudotaktowa	!	!LO:TX:t=P:problem=kreska pseudotaktowa	!
4D/	.	2B-\	.	2d\	.	2r	.
!LO:TX:t=P:problem=kreska pseudotaktowa	!	!	!	!	!	!	!
4E-/	.	.	.	.	.	.	.
=56-	=56-	=56-	=56-	=56-	=56-	=56-	=56-
1F\	.	1A\	.	2c\	.	2r	.
*	*	*	*	*	*	*	*ij
.	.	.	.	2d\	.	2f\	or-
1E-X\	-uit	1B-\	uit	2e-y\	.	1g\	-na-
.	.	.	.	4d\	.	.	.
.	.	.	.	4eny\	.	.	.
!LO:TX:t=P:problem=kreska pseudotaktowa	!	!LO:TX:t=P:problem=kreska pseudotaktowa	!	!LO:TX:t=P:problem=kreska pseudotaktowa	!	!LO:TX:t=P:problem=kreska pseudotaktowa	!
1D\	or-	1B-\	or-	1f\	.	1f\	-[vit]
*	*	*	*	*	*	*	*Xij
=57-	=57-	=57-	=57-	=57-	=57-	=57-	=57-
1E-X\	-na-	0B-\	-na-	2c\	uit	1g\	or-
.	.	.	.	2c\	or-	.	.
!LO:TX:t=P:problem=kreska pseudotaktowa	!	!	!	!LO:TX:t=P:problem=kreska pseudotaktowa	!	!LO:TX:t=P:problem=kreska pseudotaktowa	!
0F\	.	.	.	0c\	-na-	0f\	-na-
!	!	!LO:TX:t=P:problem=kreska pseudotaktowa	!	!	!	!	!
.	.	1A\	.	.	.	.	.
=58-	=58-	=58-	=58-	=58-	=58-	=58-	=58-
1BB-/,	-uit	1B-\	-uit	1d\	-uit	1f\	-vit
1BB-/	si-	1B-\	ſi-	1d\	ſi-	1f\	Si-
!LO:TX:t=P:problem=kreska pseudotaktowa	!	!LO:TX:t=P:problem=kreska pseudotaktowa	!	!LO:TX:t=P:problem=kreska pseudotaktowa	!	!LO:TX:t=P:problem=kreska pseudotaktowa	!
1BB-/	-bi	1B-\	-bi	1d\	-bi	1f\	-bi
=59-	=59-	=59-	=59-	=59-	=59-	=59-	=59-
1F\	ſpon-	1A\	ſpon-	1c\	ſpon-	1a\	Spon-
1F\	-ſa(m)	1A\	-ſam	1c\	-ſa(m)	1a\	-ſa(m)
!LO:TX:t=P:problem=kreska pseudotaktowa	!	!	!	!	!	!	!
!LO:TX:t=P:tekst:problem=et in qua poprawiony na et quae in	!	!	!	!LO:TX:t=P:problem=kreska pseudotaktowa	!	!LO:TX:t=P:problem=kreska pseudotaktowa	!
1G\	et	2B-\	et	1B-\	et	1g\	in
*	*	*custos:d	*	*	*	*	*
!	!	!LO:TX:t=P:problem=kreska pseudotaktowa	!	!	!	!	!
.	.	2c\	.	.	.	.	.
!	!	!LO:LB:g=original	!	!	!	!	!
=60-	=60-	=60-	=60-	=60-	=60-	=60-	=60-
!	!	!LO:TX:t=P:problem=tekst poprawiony na qvae in	!	!LO:TX:t=P:problem=tekst poprawiony na qvae in	!	!	!
0D\	in	0d\	in	0A\	in	0f#X\	a-
!LO:TX:t=P:problem=kreska pseudotaktowa	!	!LO:TX:t=P:problem=kreska pseudotaktowa	!	!LO:TX:t=P:problem=kreska pseudotaktowa	!	!LO:TX:t=P:problem=kreska pseudotaktowa	!
1D\	qua	1d\	qua	1A\	qua	1f#\	-da(m)
=61-	=61-	=61-	=61-	=61-	=61-	=61-	=61-
0D\	A-	0A\	A-	0d\	A-	0f#X\	quae
!LO:TX:t=P:problem=kreska pseudotaktowa	!	!LO:TX:t=P:problem=kreska pseudotaktowa	!	!LO:TX:t=P:problem=kreska pseudotaktowa	!	!LO:TX:t=P:problem=kreska pseudotaktowa	!
1BB-/	-da(m)	1B-\	-dam	1d\	-dam	1g\	.
!	!	!	!	!LO:LB:g=original	!	!	!
=62-	=62-	=62-	=62-	=62-	=62-	=62-	=62-
1C/	non	1G/	non	1c\	non	1e\	non
1r	.	1r	.	1r	.	1r	.
!LO:TX:t=P:problem=kreska pseudotaktowa	!	!LO:TX:t=P:problem=kreska pseudotaktowa	!	!LO:TX:t=P:problem=kreska pseudotaktowa	!	!LO:TX:t=P:problem=kreska pseudotaktowa	!
1AA/	non	1A\	no(n)	1c\	non	1a\	non
!LO:LB:g=original	!	!	!	!	!	!LO:LB:g=original	!
=63-	=63-	=63-	=63-	=63-	=63-	=63-	=63-
1.D\	non	1.F/	non	1.A\	non	0f\	non
2C/	.	4G/	.	4B-\	.	.	.
.	.	4A/	.	4c\	.	.	.
!LO:TX:t=P:problem=kreska pseudotaktowa	!	!LO:TX:t=P:problem=kreska pseudotaktowa	!	!LO:TX:t=P:problem=kreska pseudotaktowa	!	!LO:TX:t=P:problem=kreska pseudotaktowa	!
1BB-/	.	1B-\	.	1d\	.	1g\	pec-
=64-	=64-	=64-	=64-	=64-	=64-	=64-	=64-
1C/	pec-	1A\	pec-	1e-X\	pec-	0g\	-ca-
!LO:TX:t=P:problem=kreska pseudotaktowa	!	!LO:TX:t=P:problem=kreska pseudotaktowa	!	!LO:TX:t=P:problem=kreska pseudotaktowa	!	!	!
0D\	-ca-	0A\	-ca-	0d\	-ca-	.	.
!	!	!	!	!	!	!LO:TX:t=P:problem=kreska pseudotaktowa	!
.	.	.	.	.	.	1f\	-vit
=65-	=65-	=65-	=65-	=65-	=65-	=65-	=65-
!LO:TX:t=P:problem=1G poprawione na 1GG	!	!	!	!	!	!	!
1GG/	-uit	1B-\	-uit	1d\	-uit	1g\	.
!LO:TX:t=P:problem=kreska pseudotaktowa	!	!LO:TX:t=P:problem=kreska pseudotaktowa	!	!LO:TX:t=P:problem=kreska pseudotaktowa	!	!LO:TX:t=P:problem=kreska pseudotaktowa	!
0G\	non	0B-\	non	0d\	non	0d\	non
=66-	=66-	=66-	=66-	=66-	=66-	=66-	=66-
1r	.	1r	.	1r	.	1r	.
!LO:TX:t=P:problem=kreska pseudotaktowa	!	!LO:TX:t=P:problem=kreska pseudotaktowa	!	!LO:TX:t=P:problem=kreska pseudotaktowa	!	!LO:TX:t=P:problem=kreska pseudotaktowa	!
*	*ij	*	*	*	*ij	*	*
0F\	non	0A\	non	0d\	non	0f\	non
*	*Xij	*	*	*	*Xij	*	*
=67-	=67-	=67-	=67-	=67-	=67-	=67-	=67-
1G\	pec-	1B-\	pec-	1d\	pec-	1e\	pec-
!LO:TX:t=P:problem=kreska pseudotaktowa	!	!LO:TX:t=P:problem=kreska pseudotaktowa	!	!	!	!LO:TX:t=P:problem=kreska pseudotaktowa	!
0A\	-ca-	0A\	-ca-	(<1d\	-ca-	0e\	-ca-
!	!	!	!	!LO:TX:t=P:problem=kreska pseudotaktowa	!	!	!
.	.	.	.	1c#X\)	.	.	.
=68-	=68-	=68-	=68-	=68-	=68-	=68-	=68-
1D\,	-uit	1A\	-uit	1d\	-uit	1f\	-vit
!LO:TX:t=P:problem=kreska pseudotaktowa	!	!LO:TX:t=P:problem=kreska pseudotaktowa	!	!LO:TX:t=P:problem=kreska pseudotaktowa	!	!LO:TX:t=P:problem=kreska pseudotaktowa	!
0BB-/	non	0B-\	non	0d\	non	0f\	n(on)
=69-	=69-	=69-	=69-	=69-	=69-	=69-	=69-
1r	.	1r	.	1r	.	1r	.
!	!	!	!	!LO:TX:t=P:problem=kreska pseudotaktowa	!	!	!
!LO:TX:t=P:problem=kreska pseudotaktowa	!	!LO:TX:t=P:problem=kreska pseudotaktowa	!	!LO:TX:t=P:problem=♭ above	!	!LO:TX:t=P:problem=kreska pseudotaktowa	!
*	*	*	*	*	*ij	*	*
0E-X\	non	0B-\	non	0e-X\	non	0g\	non
*	*	*	*	*	*Xij	*	*
!	!	!LO:LB:g=original	!	!	!	!	!
=70-	=70-	=70-	=70-	=70-	=70-	=70-	=70-
1BB-/	pec-	1B-\	pec-	1d\	pec-	1g\	pec-
!LO:TX:t=P:problem=kreska pseudotaktowa	!	!LO:TX:t=P:problem=kreska pseudotaktowa	!	!LO:TX:t=P:problem=kreska pseudotaktowa	!	!	!
0D\	-ca-	0A\	-ca-	0d\	-ca-	1g\	-ca-
!	!	!	!	!	!	!LO:TX:t=P:problem=kreska pseudotaktowa	!
.	.	.	.	.	.	1f#X\	-vit
=71-	=71-	=71-	=71-	=71-	=71-	=71-	=71-
1GG/	-uit	1B-\	-uit	1d\	-uit	1g\	.
!LO:TX:t=P:problem=kreska pseudotaktowa	!	!LO:TX:t=P:problem=kreska pseudotaktowa	!	!LO:TX:t=P:problem=kreska pseudotaktowa	!	!LO:TX:t=P:problem=kreska pseudotaktowa	!
*	*ij	*	*ij	*	*	*	*
0E-X\	non	0B-\	non	0e-X\	non	0g\	n(on)
!	!	!	!	!LO:LB:g=original	!	!	!
=72-	=72-	=72-	=72-	=72-	=72-	=72-	=72-
1BB-/	pec-	1B-\	pec-	1d\	pec-	1g\	n(on)
0D\	-ca-	0A\	-ca-	0d\	-ca-	1g\	pec-
.	.	.	.	.	.	1f#X\	-ca-
=73-	=73-	=73-	=73-	=73-	=73-	=73-	=73-
*M2/1	*	*M2/1	*	*M2/1	*	*M2/1	*
*met(C|)	*	*met(c)	*	*met(c)	*	*met(C|)	*
!	!	!LO:TX:t=P:problem=kreska pseudotaktowa	!	!	!	!	!
!LO:TX:t=P:problem=kreska pseudotaktowa	!	!LO:N:acc=#	!	!LO:TX:t=P:problem=kreska pseudotaktowa	!	!LO:TX:t=P:problem=kreska pseudotaktowa	!
1GG/	-uit	1Bn\	-uit	1d\	-uit	1g\	-vit
*	*	*	*Xij	*	*	*	*
!LO:LB:g=original	!	!	!	!	!	!LO:LB:g=original	!
4r	.	4r	.	4r	.	4r	.
!	!	!	!	!LO:N:acc=#	!	!	!
*	*	*	*	*	*ij	*	*
2C/	non	2G/	non	2en\	pec-	2e\	non
!LO:TX:t=P:problem=kreska pseudotaktowa	!	!LO:TX:t=P:problem=kreska pseudotaktowa	!	!LO:TX:t=P:problem=kreska pseudotaktowa	!	!LO:TX:t=P:problem=kreska pseudotaktowa	!
4AA/	pec-	4F#X/	pec-	4c\	-ca-	4a\	non
=74-	=74-	=74-	=74-	=74-	=74-	=74-	=74-
0GG/	-ca-	4B-\	-ca-	4d\	.	2.a\	pec-
.	.	4A\	.	4A\	.	.	.
.	.	4G\	.	2.d\	.	.	.
!	!	!LO:TX:t=P:problem=kreska pseudotaktowa	!	!	!	!	!
.	.	4A\	.	.	.	8g\L	-ca-
!	!	!	!	!	!	!LO:TX:t=P:problem=kreska pseudotaktowa	!
.	.	.	.	.	.	8f\J	.
.	.	4B-\	.	.	.	1g\	.
.	.	4c\	.	4c\	.	.	.
!	!	!LO:TX:t=P:problem=kreska pseudotaktowa	!	!LO:TX:t=P:problem=kreska pseudotaktowa	!	!	!
.	.	2d\	.	2B-\	.	.	.
=75-	=75-	=75-	=75-	=75-	=75-	=75-	=75-
!LO:TX:t=P:problem=podwójna fermata	!	!LO:TX:t=P:problem=podwójna fermata	!	!LO:TX:t=P:problem=podwójna fermata	!	!LO:TX:t=P:problem=podwójna fermata	!
0D\;;	-uit	0d\;;	-uit	0A\;;	-uit	0f#X\;;	-vit
*	*Xij	*	*	*	*Xij	*	*
=-	=-	=-	=-	=-	=-	=-	=-
*-	*-	*-	*-	*-	*-	*-	*-
!!!system-decoration: [(s1,s2,s3,s4)]
!!!RDF**kern: > = above
!!!RDF**kern: < = below
!!!EED: Leszek Kubiak
!!!EST: 2021-04-06
!!!ENC: Katarzyna Serwa
!!!END: 2021-03-24
